X:1
T:Rozette
T:Jan Pieterszoon Sweelinck
T:Rozette
C:Jan Pieterszoon Sweelinck
%%score [ 1 2 3 4 ]
L:1/8
Q:1/4=120
M:4/2
K:A
V:1 treble nm="Superius" snm="S"
V:2 treble-8 nm="Contratenor" snm="CT"
V:3 treble-8 nm="Tenor" snm="T"
V:4 bass nm="Bassus" snm="B"
V:1
 A4 e4 e4 cdec | d2 c2 B2 A2 B4 B2 c2 | B2 B2 c4 z8 | z8 z2 E2 e4 | e4 cdec d2 c2 B2 ^A2 | %5
w: Ro- zet- te, pour un peu d'ab-|sen- ce vo- stre cœur vous a-|vez chan- gé,|Ro- zet-|te, pour un peu d'ab- sen- ce vo- stre|
 B2 Bc ^d2 d2 e4 z4 | z4 B4 c4 z2 c2 | c2 A2 F2 E2 F2 E2 z2 E2 | A3 A A2 A2 A2 G2 A2 G2 | %9
w: cœur vous a- vez chan- gé,|et moy sça-|chant cest' in- con- stan- ce et|moy sça- chant cest' in- con- stan- ce|
 z2 B2 B8 c3 c | B2 A4 G2 A4 z2 c2 | c2 cB A2 ed c2 c2 z2 G2 | A4 A2 AA G2 F2 E4 | E2 EE E2 F2 G8 | %14
w: le mien d'au- tre|part j'ay ran- gé. Ja-|mais plus beau- té si le- ge- re sur|moy tant de pou- voir n'au- ra,|tant de pou- voir n'au- ra,|
 z4 z2 A2 c2 cB A2 ed | c2 c2 z2 F2 B4 c2 cc | B3 c d2 A2 B4 z2 B2 | c4 e2 ee d2 c2 B4 | %18
w: Ja- mais plus beau- té si le-|ge- re sur moy tant de pou-|voir _ _ n'au- ra, sur|moy tant de pou- voir n'au- ra:|
 ABcd e2 ed c2 A2 ABcd | e2 ed c4 A4 z4 | F6 F2 F4 z4 | FGAB c2 BA G2 E2 B3 A | %22
w: Nous ver- rons vo- la- ge Ber- ge- re, Nous ver- rons vo-|la- ge Ber- ge- re,|Nous ver- rons|Nous ver- rons vo- la- ge Ber- ge- re, qui pre-|
 G2 cB c2 ^d2 e4 z4 | z4 A3 B c6 BA | B2 A4 G2 A4 c3 d | e4 c2 B2 c4 A4 | G16 || z16 | z16 | z16 | %30
w: mier s'en re- pen- ti- ra,|qui pre- mier s'en re-|pen- * ti- ra, qui pre-|mier s'en re- pen- ti-|ra.||||
 z16 | z4 e4 e4 ^d4 | d4 c6 c2 c4 | B12 A2 G2 | F8 E8- | E8 z4 c4- | c2 B2 B4 c4 F4 | f6 f2 B8 | %38
w: |Tan- dis qu'en|pleurs je me con-|su- * *|* me,|_ mau-|* dis- sant cest es-|loi- gne- ment,|
 z2 c2 c2 c2 c6 c2 | d2 B2 ^A2 B2 G6 =A2 | A4 z4 z2 cd e4- | e2 dc B2 B2 c8 | z2 c2 c8 z2 c2 | %43
w: vous qui n'ai- mez que|par cou- stu- me, ca- res-|siez un nou- vel|_ _ _ _ a- mant.|Ja- mais Ja-|
 c4 z2 c2 c2 A2 cded | c2 ce cBAB c2 c2 c3 B | AAGF E2 e2 e3 d ccBA | G4 z2 G2 G3 A B4 | %47
w: mais Ja- mais le- ge- re gi- roü-|et- te le- ge- re gi- roü- ett' au vent si|tost ne se vi- ra, au vent si tost ne se vi-|ra, ne se vi- ra:|
 ABcd e2 ed c2 A2 ABcd | e2 ed c2 B2 c3 d e2 dc | d2 B2 A4 z8 | F3 G A2 GF G2 ^A2 B4 | %51
w: Nous ver- rons, Ber- ge- re Ro- zet- te, Nous ver- rons, Ber-|ge- re Ro- zet- te, qui pre- mier s'en re-|pen- ti- ra,|qui pre- mier s'en re- pen- ti- ra,|
 z4 ABcd e2 BA G2 E2 | EFGA B2 ed c4 B4 | c3 d e2 A2 G2 A4 G2 | A16- | A16 || z8 c8 | c4 c6 c2 d4 | %58
w: Nous ver- rons, Ber- ge- re Ro- zet- te,|Nous ver- rons, Ber- ge- re Ro- zet- te,|qui pre- mier s'en re- pen- ti-|ra.|_|Où|sont tant de pro-|
 c4 d4 B8 | A8 z4 e4 | e4 c6 c2 A4 | e4 c4 d8 | c8 B8 | z16 | z8 z4 c4- | c4 d4 ^d4 e4 | %66
w: mes- ses sain-|ctes, Où|sont tant de pro-|mes- ses sain-|* ctes,||tant|_ de pleurs ver-|
 e2 d2 c2 B2 A4 c2 d2 | e6 dc B8 | z4 c2 G2 c8 | c4 B4 G4 A4 | B16 | ^A4 z4 z4 z2 F2 | %72
w: sez _ _ _ _ en par-|tant? _ _ _|Est- il vray|que ces tri- stes|plain-|tes sor-|
 F2 FE F2 G2 G2 GF G2 AB | c3 BcB c2 e3 d c2 BA | B2 c2 d4 c4 z4 | z8 z2 F2 A4- | A4 G4 z2 B2 c4- | %77
w: tis sent d'un cœur sor- tis sent d'un cœur in- con-|stant? _ _ _ _ Dieux que vous es- tes|men- son- ge- re!|Mau- dit|_ soit, Mau- dit|
 c4 B4 z4 z2 c2 | e4 e4 c2 B2 c2 A2 | G8 A2 A2 A2 B2 | c4 c2 B2 G8 | ABcd e2 ed c2 A2 ABcd | %82
w: _ soit, Mau-|dit soit, qui plus vous croi-|ra, qui plus vous croi-|ra, vous croi- ra:|Nous ver- rons vo- la- ge Ber- ge- re, Nous ver- rons vo-|
 e2 ed c4 A4 z4 | F6 F2 F4 z4 | FGAB c2 BA G2 E2 B3 A | G2 cB c2 ^d2 e4 z4 | z4 A3 B c6 BA | %87
w: la- ge Ber- ge- re,|Nous ver- rons|Nous ver- rons vo- la- ge Ber- ge- re, qui pre-|mier s'en re- pen- ti- ra,|qui pre- mier s'en re-|
 B2 A4 G2 A4 c3 d | e4 c2 B2 c4 A4 | G16 || E4 E2 E2 F2 A2 G2 B2 | c4 c4 z4 c2 B2 | %92
w: pen- * ti- ra, qui pre-|mier s'en re- pen- ti-|ra.|Ce- luy qui a gai- gné ma|pla- ce ne vous|
 A3 A G4 A2 B2 E4 | E4 F4 G4 z4 | c4 c2 c2 B2 G2 A2 F2 | E4 E4 z4 e2 d2 | c3 c B4 A2 F2 E4 | %97
w: peut ai- mer tant que moy,|tant que moy,|Ce- luy qui a gai- gné ma|pla- ce ne vous|peut ai- mer tant que moy,|
 E2 E2 F3 GAB c3 c B2- | B2 A4 G2 A8 | z4 c4 e4 A2 c2 | B8 B4 z2 E2 | FGABcd e2 c8 | z4 c6 B2 G4 | %103
w: ne vous peut _ _ _ _ ai- mer|_ tant que moy:|Et cel- le que|j'ai- me vous|pas- * * * * * * se|de beau- té,|
 z2 G2 c8 c2 ^d2 | e8 z4 E4 | E4 F2 A2 G8 | G4 z2 C2 DEFGAB c2 | A8 z4 A4- | A2 =G2 F8 z2 ^A2 | %109
w: d'a- mour et de|foy, Et|cel- le que j'ai-|me vous pas- * * * * * *|se de|_ beau- té, d'a-|
 B4 B2 B2 c8 |[M:6/4] e2 e2 d2 c2 cc c2 | ^B4 B2 c2 c2 =B2 | BAGF G2 A2 A2 G2 | F2 FF F2 ^E4 E2 | %114
w: mour et de foy.|Gar- dez bien vostr' a- mi- tié|neu- ve, la mien- ne|plus ne va- ri- ra, Gar- dez bien|vostr' a- mi- tié neu- ve,|
 F2 A2 G2 AFEE E2 |[M:4/2] ABcd e2 ed c2 A2 ABcd | e2 ed c2 B2 c3 d e2 dc | d2 B2 A4 z8 | %118
w: la mien- ne plus ne va- ri- ra:|Et puis nous ver- rons à l'es- preu- ve, Et puis nous ver-|rons à l'es- preu- ve, qui pre- mier s'en re-|pen- ti- ra,|
 F3 G A2 GF G2 ^A2 B4 | z4 ABcd e2 BA G2 E2 | EFGA B2 ed c4 B4 | c3 d e2 A2 G2 A4 G2 | A16- | %123
w: qui pre- mier s'en re- pen- ti- ra,|Et puis nous ver- rons à l'es- preu- ve,|Et puis nous ver- rons à l'es- preu- ve,|qui pre- mier s'en re- pen- ti-|ra.|
 A16 |] %124
w: _|
V:2
 z4 z2 e2 a4 a4 | fgaf =g2 f2 e2 ^d2 e2 ef | g2 g2 a3 g/f/ e4 z4 | z8 z4 z2 E2 | e4 e4 fgag f2 f2 | %5
w: Ro- zet- te,|pour un peu d'ab- sen- ce vo- stre cœur vous a-|vez chan- gé, _ _ _|Ro-|zet- te, pour un peu d'ab- sen- ce|
 f2 g2 f4 g2 g2 f2 f2 | g8 z4 e4 | a8 z2 a2 a2 a2 | f2 e2 f2 e2 z8 | z2 g2 g8 a3 g | f4 e2 e2 c8 | %11
w: vo- stre cœur vous a- vez chan-|gé, et|moy sça- chant cest'|in- con- stan- ce|le mien d'au- tre|part j'ay ran- gé.|
 z4 z2 A2 A2 cB A2 ed | c2 c2 z2 A2 B4 c4- | c2 cc B2 A2 B4 z2 e2 | e2 ed c2 cB A2 A2 z2 g2 | %15
w: Ja- mais plus beau- té si le-|ge- re sur moy tant|_ de pou- voir n'au- ra, Ja-|mais plus beau- té si le- ge- re sur|
 a4 a2 aa g2 f2 e4 | g2 gg f2 e3 ^d/c/ d2 e2 e2 | e4 a2 aa f2 a2 g4 | z8 ABcd e2 ed | %19
w: moy tant de pou- voir n'au- ra,|tant de pou- voir n'au- * * * ra, sur|moy tant de pou- voir n'au- ra:|Nous ver- rons vo- la- ge Ber-|
 c2 A2 e3 d c2 fe f2 g2 | a16 | z8 z4 g3 a | b2 ag a2 f2 e4 z4 | z8 e3 d c2 de | f4 e4 c4 e4- | %25
w: ge- re, qui pre- mier s'en re- pen- ti-|ra,|qui pre-|mier s'en re- pen- ti- ra,|qui pre- mier s'en re-|pen- ti- ra, s'en|
 e2 e2 e2 e2 e8- | e16 || z16 | z16 | z16 | z8 z4 a4 | a4 g4 =g4 f4- | f2 f2 f4 e8- | %33
w: _ re- pen- ti- ra.|_||||Tan-|dis qu'en pleurs je|_ me con- su-|
 e4 d2 c2 B8- | B4 A4 z4 c4- | c2 B2 B4 c6 d2 | e8 A4 a4- | a4 a4 g8 | z2 a2 a2 a2 a6 a2 | %39
w: |* me, mau-|* dis- sant cest _|_ es- loi-|* gne- ment,|vous qui n'ai- mez que|
 a2 g2 f2 ^d2 e6 e2 | f2 fg a6 gf e4- | e4 e4 e8 | z2 e2 e4 z4 z2 A2 | e4 z2 A2 A2 F2 ABcB | %44
w: par cou- stu- me, ca- res-|siez un nou- vel _ _ _|_ a- mant.|Ja- mais Ja-|mais Ja- mais le- ge- re gi- roü-|
 A2 Ac AGFG A4 c4 | z4 z2 A2 A3 B cceA | B2 B2 B3 B eedc B4 | z4 ABcd e2 ed c2 A2 | z8 e3 d c2 fe | %49
w: et- te le- ge- re gi- roü- et- te|au vent si tost ne se vi-|ra, au vent si tost ne se vi- ra:|Nous ver- rons, Ber- ge- re Ro- zet- te,|qui pre- mier s'en re-|
 f2 g2 a4 z8 | a3 g f2 e^d e2 c2 B4 | z8 gfga b2 ba | g2 e2 efgg a2 aa g2 e2 | %53
w: pen- ti- ra,|qui pre- mier s'en re- pen- ti- ra,|Nous ver- rons, Ber- ge- re Ro-|zet- te, Nous ver- rons, Ber- ge- re Ro- zet- te,|
 z2 e3 d c2 B2 c2 B2 B2 | A2 cd e2 dc d4 f4 | e16 || e16 | a8 a2 a2 a4 | a4 a4 =g8 | f8 e8 | %60
w: qui pre- mier s'en re- pen- ti-|ra, qui pre- mier s'en re- pen- ti-|ra.|Où|sont tant de pro-|mes- ses sain-|* ctes,|
 e4 e4 c6 c2 | A4 e4 f8 | a8 g8 | e8 z8 | z4 g8 a4 | ^a4 b4 b2 =a2 g2 f2 | e4 e2 d2 c4 z4 | %67
w: Où sont tant de|pro- mes- ses|sain- *|ctes,|tant de|pleurs ver- sez _ _ _|_ en par- tant?|
 z4 e2 f2 g8 | z8 z4 e2 A2 | e8 e4 d4 | B4 c4 d8 | c2 c2 A2 AG A2 Bc ^d3 c | %72
w: en par- tant?|Est- il|vray que ces|tri- stes plain-|tes sor- tis sent d'un cœur in- con- stant, _|
 ^dc d2 z2 B2 e2 eB e2 ce | c3 ece c2 z4 z2 f2 | g2 a4 g2 a3 g f2 ed | e2 f2 =g4 f2 d2 f4 | %76
w: _ _ _ sor- tis sent d'un cœur in- con-|stant? _ _ _ _ men-|son- ge- re! Dieux que vous es- tes|men- son- ge- re! Mau- dit|
 e4 z2 e2 g4 e4 | z4 z2 e2 f4 f4 | g2 f2 g2 e2 f4 z2 c2 | e4 e4 f2 e2 f2 d2 | c4 c2 ^d2 e8 | %81
w: soit, mau- dit soit,|mau- dit soit,|qui plus vous croi- ra, mau-|dit soit qui plus vous croi-|ra, vous croi- ra:|
 z8 ABcd e2 ed | c2 A2 e3 d c2 fe f2 g2 | a16 | z8 z4 g3 a | b2 ag a2 f2 e4 z4 | z8 e3 d c2 de | %87
w: Nous ver- rons vo- la- ge Ber-|ge- re, qui pre- mier s'en re- pen- ti-|ra,|qui pre-|mier s'en re- pen- ti- ra,|qui pre- mier s'en re-|
 f4 e4 c4 e4- | e2 e2 e2 e2 e8- | e16 || z16 | a4 a2 a2 g2 e2 f2 d2 | c4 c4 e2 d2 c3 c | %93
w: pen- ti- ra, s'en|_ re- pen- ti- ra.|_||Ce- luy qui a gai- gné ma|pla- ce ne vous peut ai-|
 B2 e4 ^d2 e4 c2 =d2 | e3 e e4 z8 | z2 G2 G2 G2 A2 F2 E2 F2 | A2 E2 z2 e4 d2 c3 c | %97
w: mer tant que moy, ne vous|peut ai- mer|Ce- luy qui a gai- gné ma|pla- ce ne vous peut ai-|
 B4 c2 d2 A4 F2 f2 | e4 f2 e2 c8 | e8 e4 f2 a2 | g8 g4 z2 c2 | defgaf g2 a2 f2 edcB | %102
w: mer tant que moy, peut ai-|mer tant que moy:|Et cel- le que|j'ai- me vous|pas- * * * * * * se vous pas- * * *|
 A2 A2 a6 f2 ^e4- | e4 z2 g2 a4 a2 f2 | g8 z4 g4 | a4 a2 A2 B8 | B2 b2 agfedc B2 A2 E2 | %107
w: * se de beau- té,|_ d'a- mour et de|foy, Et|cel- le que j'ai-|me vous pas- * * * * * * se vous|
 FGABcd e2 c4 f4- | f2 e2 c4 z2 c2 f4- | f4 f2 g2 a8 |[M:6/4] a2 a2 f2 a2 aa a2 | g4 g2 g2 a2 f2 | %112
w: pas- * * * * * * se de|_ beau- té, d'a- mour|_ et de foy.|Gar- dez bien vostr' a- mi- tié|neu- ve, la mien- ne|
 Bee^d e2 e2 e2 e2 | c2 dd d2 c4 c2 | c2 f2 e2 edcB c2 |[M:4/2] z4 ABcd e2 ed c2 A2 | %116
w: plus ne va- ri- ra, Gar- dez bien|vostr' a- mi- tié neu- ve,|la mien- ne plus ne va- ri- ra:|Et puis nous ver- rons à l'es- preu- ve,|
 z8 e3 d c2 fe | f2 g2 a4 z8 | a3 g f2 e^d e2 c2 B4 | z8 gfga b2 ba | g2 e2 efgg a2 aa g2 e2 | %121
w: qui pre- mier s'en re-|pen- ti- ra,|qui pre- mier s'en re- pen- ti- ra,|Et puis nous ver- rons à l'es-|preu- ve, Et puis nous ver- rons à l'es- preu- ve,|
 z2 e3 d c2 B2 c2 B2 B2 | A2 cd e2 dc d4 f4 | e16 |] %124
w: qui pre- mier s'en re- pen- ti-|ra, qui pre- mier s'en re- pen- ti-|ra.|
V:3
 z16 | z8 z4 z2 A2 | e4 e4 cdec d2 c2 | B2 A2 B4 B2 c2 B2 B2 | c4 z4 ABce d2 c2 | %5
w: |Ro-|zet- te, pour un peu d'ab- sen- ce|vo- stre cœur vous a- vez chan-|gé, pour un peu d'ab- sen- ce|
 B2 B2 B4 B3 c ^d2 d2 | e8 z4 c4 | e4 z4 z2 A2 A2 c2 | d2 c2 d2 cc c2 e2 ^d2 e2 | %9
w: vo- stre cœur vous a- vez chan-|gé, et|moy sça- chant cest'|in- con- stan- ce cest' in- con- stan- ce|
 z4 z2 e2 e4 e3 e | d4 c2 B2 e8 | z4 z2 e2 e2 AG F2 cB | A2 A2 z4 z2 F2 G4 | A2 AA G2 F2 E8 | %14
w: le mien d'au- tre|part j'ay ran- gé.|Ja- mais plus beau- té si le-|ge- re sur moy|tant de pou- voir n'au- ra,|
 z4 z2 A2 e2 ed c2 cB | A2 A2 z4 z2 F2 G4- | G4 A2 AA G2 F2 E4 | z4 A2 AA d2 e2 e4 | %18
w: Ja- mais plus beau- té si le-|ge- re sur moy|_ tant de pou- voir n'au- ra,|tant de pou- voir n'au- ra:|
 z4 ABcd e2 ed c2 A2 | z4 c3 d e2 dc d2 B2 | A4 DEFG A2 AG F2 D2 | DEFG A2 AA B4 B4 | %22
w: Nous ver- rons vo- la- ge Ber- ge- re,|qui pre- mier s'en re- pen- ti-|ra, Nous ver- rons vo- la- ge Ber- ge- re,|Nous ver- rons vo- la- ge Ber- ge- re,|
 z8 c3 B A2 dc | d2 e2 f4 c3 d e2 dc | d4 B4 A4 A3 B | c4 A2 G2 A4 c4 | B16 || z8 e8 | %28
w: qui pre- mier s'en re-|pen- ti- ra, qui pre- mier s'en re-|pen- ti- ra, qui pre-|mier s'en re- pen- ti-|ra.|Tan-|
 e4 ^d4 =d4 c4- | c2 c2 c4 B8- | B4 A2 G2 F8- | F4 E4 z8 | z16 | z16 | z8 z4 A4- | A2 G2 G4 A8 | %36
w: dis qu'en pleurs je|_ me con- su-||* me,|||mau-|* dis- sant cest|
 E4 e8 ^d2 c2 | ^d2 e4 d2 e4 z2 e2 | e2 e2 e8 e4 | f2 e2 c2 f2 B6 c2 | A4 z2 AB c6 BA | %41
w: es- loi- * *|* * gne- ment, vous|qui n'ai- mez que|par cou- stu- me, ca- res-|siez un nou- vel _ _|
 G2 A3 G/F/ G2 A4 z2 c2 | c4 z2 c2 c2 A2 cded | c2 ce cBAB c2 c2 z2 A2 | edcA c4 c2 e2 e3 e | %45
w: _ a- * * * mant. Ja-|mais Ja- mais le- ge- re gi- roü-|et- te le- ge- re gi- roü- et- te le-|ge- re gi- roü- et- te au vent si|
 AABB c3 d e4 z4 | z2 e2 e3 d ccBA G4 | A6 A2 A8 | ABcd e2 ed c2 A2 z4 | z4 A3 G F2 BA B2 c2 | %50
w: tost ne se vi- ra, _ _|au vent si tost ne se vi- ra:|Nous ver- rons,|Nous ver- rons, Ber- ge- re Ro- zet- te,|qui pre- mier s'en re- pen- ti-|
 d4 z4 z4 f3 e | d2 cB c2 A2 B4 EFGA | B2 BA G2 E2 z2 EF GA B2 | A3 A G2 E2 z8 | e3 d c2 de f4 d4 | %55
w: ra, qui pre-|mier s'en re- pen- ti- ra, Nous ver- rons, Ber-|ge- re Ro- zet- te, Nous ver- rons, Ber- ge-|re Ro- zet- te,|qui pre- mier s'en re- pen- ti-|
 c16 || z8 z4 e4 | e4 f6 f2 f4 | e4 f4 d8- | d8 c8 | z4 e4 e4 c4- | c2 c2 A4 d4 B4 | %62
w: ra.|Où|sont tant de pro-|mes- ses sain-|* ctes,|Où sont tant|_ de pro- mes- ses|
 (3F6 G2 A4 E8 | z4 c8 d4 | ^d4 e4 e2 =d2 c2 B2 | c2 F2 B2 A2 G2 F2 E4 | z4 c2 d2 e4 A2 B2 | %67
w: sain- * * ctes,|tant de|pleurs ver- sez _ _ _|_ _ _ _ _ _ _|en par- tant? en par-|
 c8 z4 e2 B2 | e8 e4 c4 | A4 B4 c8 | e8 f8 | z2 f2 c2 cc c2 ee ^d3 f | ^df d2 z2 e2 B2 BB B2 fB | %73
w: tant? Est- il|vray que ces|tri- stes plain-|* tes|sor- tis sent d'un cœur in- con- stant, _|_ _ _ sor- tis sent d'un cœur in- con-|
 e8 c3 d e2 dc | B2 A2 B4 A4 z2 B2 | c2 d4 c2 d4 z2 A2 | c8 B2 G2 A4- | A4 G4 z8 | B2 A2 B2 G2 F8 | %79
w: stant? Dieux que vous es- tes|men- son- ge- re! men-|son- ge- * re! Mau-|dit soit, mau- dit|_ soit|qui plus vous croi- ra,|
 B2 A2 B2 G2 F2 A4 G2 | A4 F4 EFGA B4 | z4 ABcd e2 ed c2 A2 | z4 c3 d e2 dc d2 B2 | %83
w: qui plus vous croi- ra, qui plus|vous croi- ra: _ _ _ _|Nous ver- rons vo- la- ge Ber- ge- re,|qui pre- mier s'en re- pen- ti-|
 A4 DEFG A2 AG F2 D2 | DEFG A2 AA B4 B4 | z8 c3 B A2 dc | d2 e2 f4 c3 d e2 dc | d4 B4 A4 A3 B | %88
w: ra, Nous ver- rons vo- la- ge Ber- ge- re,|Nous ver- rons vo- la- ge Ber- ge- re,|qui pre- mier s'en re-|pen- ti- ra, qui pre- mier s'en re-|pen- ti- ra, qui pre-|
 c4 A2 G2 A4 c4 | B16 || z16 | z16 | z8 c2 B2 A3 A | G4 A2 B2 E4 e2 d2 | c3 c A4 B2 e2 A4 | %95
w: mier s'en re- pen- ti-|ra.|||ne vous peut ai-|mer tant que moy, ne vous|peut ai- mer tant que moy,|
 z2 E2 E2 E2 F2 A2 G2 B2 | c4 e4 c2 B4 A2- | AA G2 A2 B2 c4 z2 F2 | c4 B2 B2 A3 G/F/ E4 | %99
w: Ce- luy qui a gai- gné ma|pla- ce ne vous peut|_ ai- mer tant que moy, ai-|mer tant que moy: _ _ _|
 z4 A4 c4 d2 A2 | e8 e8 | z4 z2 E2 FGABcd e2 | c4 A6 B2 c4- | c4 z2 c2 f4 f2 B2 | e8 z4 B4 | %105
w: Et cel- le que|j'ai- me|vous pas- * * * * * *|se de beau- té,|_ d'a- mour et de|foy, Et|
 c4 d2 c2 e8 | e2 e2 cBAG F4 F2 C2 | DEFGAB c2 A8 | d2 B2 ^A8 z2 c2 | ^d4 d2 e2 e8 | %110
w: cel- le que j'ai-|me vous pas- * * * * se vous|pas- * * * * * * se|de beau- té, d'a-|mour et de foy.|
[M:6/4] c2 c2 d2 e2 ee f2 | ^d4 d2 e2 e2 d2 | ecBB B2 c2 c2 B2 | A2 AA B2 G4 G2 | %114
w: Gar- dez bien vostr' a- mi- tié|neu- ve, la mien- ne|plus ne va- ri- ra, Gar- dez bien|vostr' a- mi- tié neu- ve,|
 A2 d2 B2 cAAG A2 |[M:4/2] A8 A8 | ABcd e2 ed c2 A2 z4 | z4 A3 G F2 BA B2 c2 | d4 z4 z4 f3 e | %119
w: la mien- ne plus ne va- ri- ra:|Et puis|Et puis nous ver- rons à l'es- preu- ve,|qui pre- mier s'en re- pen- ti-|ra, qui pre-|
 d2 cB c2 A2 B4 EFGA | B2 BA G2 E2 z2 EF GA B2 | A3 A G2 E2 z8 | e3 d c2 de f4 d4 | c16 |] %124
w: mier s'en re- pen- ti- ra, Et puis nous ver-|rons à l'es- preu- ve, Et puis nous ver- rons|à l'es- preu- ve,|qui pre- mier s'en re- pen- ti-|ra.|
V:4
 z16 | z16 | z2 E,2 A,4 A,4 F,G,A,F, | =G,2 F,2 E,2 ^D,2 E,2 E,F, ^G,2 G,2 | %4
w: ||Ro- zet- te, pour un peu d'ab-|sen- ce vo- stre cœur vous a- vez chan-|
 A,4 A,,B,,C,A,, D,2 A,,2 B,,2 F,2 | ^D,2 E,E, B,,2 B,,2 E,F,G,A, B,4 | z4 E,4 A,4 z2 A,2 | %7
w: gé, pour un peu d'ab- sen- ce vo- stre|cœur vous a- vez chan- gé, _ _ _ _|et moy sça-|
 A,2 C2 D2 C2 D2 C2 z4 | z2 A,2 D,2 A,2 F,2 E,2 F,2 E,2 | z2 E,2 E,8 A,,3 C, | %10
w: chant cest' in- con- stan- ce|sça- chant cest' in- con- stan- ce|le mien d'au- tre|
 D,4 E,2 E,2 A,,4 z2 A,2 | A,2 A,G, F,2 CB, A,2 A,2 z2 E,2 | F,4 F,2 F,F, E,2 D,2 C,4 | z8 z4 B,4 | %14
w: part j'ay ran- gé. Ja-|mais plus beau- té si le- ge- re sur|moy tant de pou- voir n'au- ra,|Ja-|
 C2 CB, A,2 ED C2 C2 z2 E,2 | F,4 F,2 F,F, E,2 D,2 C,4 | E,2 E,E, D,2 C,2 B,,4 z2 G,2 | %17
w: mais plus beau- té si le- ge- re sur|moy tant de pou- voir n'au- ra,|tant de pou- voir n'au- ra, sur|
 A,4 C2 CC B,2 A,2 E,4 | A,6 A,2 A,8- | A,8 z8 | D,E,F,G, A,2 A,G, F,2 D,2 D,E,F,G, | %21
w: moy tant de pou- voir n'au- ra:|Nous ver- rons|_|Nous ver- rons vo- la- ge Ber- ge- re, Nous ver- rons vo-|
 A,2 A,G, F,4 E,8 | z8 A,3 B, C2 B,A, | B,2 =G,2 F,4 A,6 A,2 | D,2 D,D, E,2 E,2 A,,8 | %25
w: la- ge Ber- ge- re,|qui pre- mier s'en re-|pen- ti- ra, qui pre-|mier s'en re- pen- ti- ra,|
 z2 A,,4 E,2 A,,6 A,,2 | E,16 || A,8 A,4 G,4 | =G,4 F,6 F,2 F,4 | E,12 D,2 C,2 | B,,12 A,,4 | z16 | %32
w: s'en re- pen- ti-|ra.|Tan- dis qu'en|pleurs je me con-|su- * *|* me,||
 z16 | z16 | z4 D,6 C,2 C,4 | E,8 A,,4 A,4- | A,4 G,4 F,8- | F,4 F,4 E,8 | z2 A,2 A,2 A,2 A,6 A,2 | %39
w: ||mau- dis- sant|cest es- loi-||* gne- ment,|vous qui n'ai- mez que|
 D,2 E,2 F,2 B,,2 E,6 C,2 | D,4 z2 F,G, A,6 G,F, | E,4 E,4 A,,4 z2 A,2 | %42
w: par cou- stu- me, ca- res-|siez un nou- vel _ _|_ a- mant. Ja-|
 A,4 z2 A,2 A,2 F,2 A,B,CB, | A,2 A,C A,G,F,G, A,4 A,4 | z8 z2 A,2 A,3 G, | %45
w: * Ja- mais le- ge- re gi- roü-|et- te le- ge- re gi- roü- et- te|au vent si|
 F,F,E,D, C,2 C2 C3 B, A,A,G,F, | E,16 | z8 A,B,CD E2 ED | C2 A,2 z4 z8 | %49
w: tost ne se vi- ra, au vent si tost ne se vi-|ra:|Nous ver- rons, Ber- ge- re Ro-|zet- te,|
 z4 F,3 G, A,2 =G,F, G,2 E,2 | D,4 z4 z4 D3 C | B,2 A,G, A,2 F,2 E,8- | E,8 A,,B,,C,D, E,2 E,D, | %53
w: qui pre- mier s'en re- pen- ti-|ra, qui pre-|mier s'en re- pen- ti- ra,|_ Nous ver- rons, Ber- ge- re Ro-|
 C,2 A,,2 C,3 D, E,2 D,C, D,2 E,2 | A,,4 A,2 A,2 D,6 D,2 | A,,16 || z8 A,8 | A,4 F,6 F,2 D,4 | %58
w: zet- te, qui pre- mier s'en re- pen- ti-|ra, s'en re- pen- ti-|ra.|Où|sont tant de pro-|
 A,4 F,4 =G,8 | D,3 E,F,E,F,G, A,8- | A,16 | z16 | z8 z4 G,4- | G,4 A,4 ^A,4 B,4 | %64
w: mes- ses sain-|ctes, _ _ _ _ _ _|_||tant|_ de pleurs ver-|
 B,2 A,2 G,2 F,2 E,4 z4 | z16 | C2 B,2 A,4 A,2 G,2 F,4 | z4 C,2 D,2 E,8 | z4 A,2 E,2 A,8 | %69
w: sez _ _ _ _||en par- tant? en par- tant?|en par- tant?|Est- il vray|
 A,4 G,4 E,4 F,4 | =G,8 F,8 | z2 F,2 F,2 F,E, F,2 G,A, B,3 ^A, | %72
w: que ces tri- stes|plain- tes|sor- tis sent d'un cœur in- con- stant, _|
 B,^A, B,2 z2 E,2 E,2 E,^D, E,2 F,G, | A,3 G,A,G, A,2 z8 | z8 F,3 G, A,2 =G,F, | E,2 D,2 E,4 D,8 | %76
w: _ _ _ sor- tis sent d'un cœur in- con-|stant? _ _ _ _|Dieux que vous es- tes|men- son- ge- re!|
 z2 C,2 E,4 E,4 z2 C,2 | E,4 E,4 A,2 G,2 A,2 F,2 | E,8 A,2 G,2 A,2 F,2 | E,8 D,2 C,2 D,2 B,,2 | %80
w: Mau- dit soit, mau-|dit soit qui plus vous croi-|ra, qui plus vous croi-|ra, qui plus vous croi-|
 A,,4 A,,2 B,,2 E,8 | A,6 A,2 A,8- | A,8 z8 | D,E,F,G, A,2 A,G, F,2 D,2 D,E,F,G, | %84
w: ra, vous croi- ra:|Nous ver- rons|_|Nous ver- rons vo- la- ge Ber- ge- re, Nous ver- rons vo-|
 A,2 A,G, F,4 E,8 | z8 A,3 B, C2 B,A, | B,2 =G,2 F,4 A,6 A,2 | D,2 D,D, E,2 E,2 A,,8 | %88
w: la- ge Ber- ge- re,|qui pre- mier s'en re-|pen- ti- ra, qui pre-|mier s'en re- pen- ti- ra,|
 z2 A,,4 E,2 A,,6 A,,2 | E,16 || z16 | z16 | z16 | z8 z4 A,4- | A,4 A,2 A,2 G,2 E,2 F,2 D,2 | %95
w: s'en re- pen- ti-|ra.||||Ce-|* luy qui a gai- gné ma|
 C,4 C,4 z4 C,2 B,,2 | A,,3 A,, G,,4 A,,2 B,,2 C,4 | z2 E,4 D,2 C,3 C, B,,C,D,B,, | %98
w: pla- ce ne vous|peut ai- mer tant que moy,|ne vous peut ai- mer _ _ _|
 C,4 D,2 E,2 A,,8 | z16 | z16 | z16 | z4 F,6 D,2 C,4- | C,4 z2 C2 F,4 F,2 B,2 | E,8 E,8 | %105
w: _ tant que moy:||||de beau- té,|_ d'a- mour et de|foy, Et|
 A,4 D,2 F,2 E,8 | E,4 z2 A,,2 B,,C,D,E,F,G, A,2 | F,2 D2 CB,A,G, F,2 F,2 D,4- | %108
w: cel- le que j'ai-|me vous pas- * * * * * *|se vous pas- * * * * se de|
 D,2 E,2 F,8 z2 F,2 | B,4 B,2 E,2 A,8 |[M:6/4] A,2 A,2 B,2 A,2 A,A, F,2 | G,4 G,2 C2 A,2 B,2 | %112
w: _ beau- té, d'a-|mour et de foy.|Gar- dez bien vostr' a- mi- tié|neu- ve, la mien- ne|
 G,A,E,B, E,2 A,2 A,2 E,2 | F,2 D,D, B,,2 C,4 C,2 | F,2 D,2 E,2 C,D,A,,E, A,,2 | %115
w: plus ne va- ri- ra, Gar- dez bien|vostr' a- mi- tié neu- ve,|la mien- ne plus ne va- ri- ra:|
[M:4/2] z8 A,B,CD E2 ED | C2 A,2 z4 z8 | z4 F,3 G, A,2 =G,F, G,2 E,2 | D,4 z4 z4 D3 C | %119
w: Et puis nous ver- rons à l'es-|preu- ve,|qui pre- mier s'en re- pen- ti-|ra, qui pre-|
 B,2 A,G, A,2 F,2 E,8- | E,8 A,,B,,C,D, E,2 E,D, | C,2 A,,2 C,3 D, E,2 D,C, D,2 E,2 | %122
w: mier s'en re- pen- ti- ra,|_ Et puis nous ver- rons à l'es-|preu- ve, qui pre- mier s'en re- pen- ti-|
 A,,4 A,2 A,2 D,6 D,2 | A,,16 |] %124
w: ra, s'en re- pen- ti-|ra.|

